icon/gr/phone-vertical.svg

<svg viewBox="0 0 24 24" fill="none" xmlns="http://www.w3.org/2000/svg" height="1em" width="1em">
  <path fill-rule="evenodd" clip-rule="evenodd" d="M17 23C18.1046 23 19 22.1046 19 21L19 3C19 1.89543 18.1046 1 17 1L7 0.999999C5.89543 0.999999 5 1.89543 5 3L5 21C5 22.1046 5.89543 23 7 23L17 23ZM11.0005 21L7 21L7 3L17 3L17 21L12.9995 21C12.9998 20.9896 13 20.9792 13 20.9687L13 19.9687C13 19.4165 12.5523 18.9687 12 18.9687C11.4477 18.9687 11 19.4165 11 19.9687L11 20.9687C11 20.9792 11.0002 20.9896 11.0005 21Z" fill="black"/>
</svg>

<svg width="24" height="24" fill="none" xmlns="http://www.w3.org/2000/svg"><path fill-rule="evenodd" clip-rule="evenodd" d="M17 23a2 2 0 0 0 2-2V3a2 2 0 0 0-2-2H7a2 2 0 0 0-2 2v18a2 2 0 0 0 2 2h10Zm-6-2H7V3h10v18h-4v-1.031a1 1 0 0 0-2 0V21Z" fill="#000"/></svg>
